contributed-vectors/artstation_alt_two.svg

<?xml version="1.0" encoding="UTF-8" standalone="no"?>
<svg
   xmlns:dc="http://purl.org/dc/elements/1.1/"
   xmlns:cc="http://creativecommons.org/ns#"
   xmlns:rdf="http://www.w3.org/1999/02/22-rdf-syntax-ns#"
   xmlns:svg="http://www.w3.org/2000/svg"
   xmlns="http://www.w3.org/2000/svg"
   xmlns:sodipodi="http://sodipodi.sourceforge.net/DTD/sodipodi-0.dtd"
   xmlns:inkscape="http://www.inkscape.org/namespaces/inkscape"
   style="isolation:isolate"
   viewBox="0 0 144 144"
   width="192"
   height="192"
   version="1.1"
   id="svg21"
   sodipodi:docname="artstation_alt_two.svg"
   inkscape:export-filename="/home/jphilippe/github/delta/android/contributed-vectors/artstation_alt_two.png"
   inkscape:export-xdpi="96"
   inkscape:export-ydpi="96"
   inkscape:version="1.0.1 (3bc2e813f5, 2020-09-07)">
  <metadata
     id="metadata25">
    <rdf:RDF>
      <cc:Work
         rdf:about="">
        <dc:format>image/svg+xml</dc:format>
        <dc:type
           rdf:resource="http://purl.org/dc/dcmitype/StillImage" />
        <dc:title></dc:title>
      </cc:Work>
    </rdf:RDF>
  </metadata>
  <sodipodi:namedview
     pagecolor="#ffffff"
     bordercolor="#666666"
     borderopacity="1"
     objecttolerance="10"
     gridtolerance="10"
     guidetolerance="10"
     inkscape:pageopacity="0"
     inkscape:pageshadow="2"
     inkscape:window-width="1884"
     inkscape:window-height="1052"
     id="namedview23"
     showgrid="false"
     inkscape:zoom="0.63183594"
     inkscape:cx="-213.93335"
     inkscape:cy="52.149498"
     inkscape:window-x="36"
     inkscape:window-y="0"
     inkscape:window-maximized="1"
     inkscape:current-layer="svg21"
     inkscape:document-rotation="0"
     units="px" />
  <defs
     id="defs5" />
  <g
     id="g839"
     transform="translate(-2,-2)">
    <circle
       vector-effect="non-scaling-stroke"
       cx="74"
       cy="74"
       r="66"
       fill="#4a4a4a"
       id="circle7"
       style="isolation:isolate;fill:#56595b;fill-opacity:1;stroke-width:0.75" />
    <g
       style="isolation:isolate"
       id="g15"
       transform="matrix(0.75,0,0,0.75,2,2)">
      <path
         d="m 61.587,112.413 5.813,10.049 0.002,10e-4 c 1.145,2.268 3.494,3.824 6.207,3.824 l 0.005,-0.001 v 0.001 H 112.2 l -8.007,-13.874 z"
         fill="#9abeff"
         id="path9" />
      <path
         d="m 130.413,112.484 c 0,-1.389 -0.409,-2.682 -1.111,-3.768 L 106.691,69.41 c -1.167,-2.199 -3.479,-3.697 -6.142,-3.697 h -11.95 l 34.926,60.513 5.505,-9.535 c 1.087,-1.826 1.383,-2.635 1.383,-4.207 z"
         fill="#9abeff"
         id="path11" />
      <path
         d="M 98.499,102.555 82.888,75.517 67.278,102.555 Z"
         fill="#9abeff"
         id="path13" />
    </g>
  </g>
</svg>

<?xml version="1.0" encoding="UTF-8" standalone="no"?><!-- Generator: Gravit.io --><svg xmlns="http://www.w3.org/2000/svg" xmlns:xlink="http://www.w3.org/1999/xlink" style="isolation:isolate" viewBox="0 0 192 192" width="192pt" height="192pt"><defs><clipPath id="_clipPath_PUdffMWXayjLpUY3CVLKPHUP5yq66ivn"><rect width="192" height="192"/></clipPath></defs><g clip-path="url(#_clipPath_PUdffMWXayjLpUY3CVLKPHUP5yq66ivn)"><g style="isolation:isolate"><circle vector-effect="non-scaling-stroke" cx="96" cy="96" r="88" fill="rgb(74,74,74)"/><g style="isolation:isolate"><path d=" M 61.587 112.413 L 67.4 122.462 L 67.402 122.463 C 68.547 124.731 70.896 126.287 73.609 126.287 L 73.614 126.286 L 73.614 126.287 L 112.2 126.287 L 104.193 112.413 L 61.587 112.413 Z " fill="rgb(154,190,255)"/><path d=" M 130.413 112.484 C 130.413 111.095 130.004 109.802 129.302 108.716 L 106.691 69.41 C 105.524 67.211 103.212 65.713 100.549 65.713 L 88.599 65.713 L 123.525 126.226 L 129.03 116.691 C 130.117 114.865 130.413 114.056 130.413 112.484 Z " fill="rgb(154,190,255)"/><path d=" M 98.499 102.555 L 82.888 75.517 L 67.278 102.555 L 98.499 102.555 Z " fill="rgb(154,190,255)"/></g></g></g></svg>
